X: 33510
T: Rainbow Schottische
R: barndance
M: 4/4
K: Dmajor
S(3a/b/c'/|:d'z f^g az de|fdB^G A2 BG|ABcd efga|baa^g a3 (3a/b/c'/|
d'2f^g a2de|fdB^G A4|ABcd efgc|d2 dc d2 ["To Coda"]:|
|:BcB^A Bcde|fgf^e f2b2|f2b2 fedc|BcB^A B2F2|
BcB^A Bcde|fgf^e f2b2|f2b2 fedc|B2^A2A4 []:|
[K:Gmaj] ["Coda"]|:g2bg d2gd|BGBd b4|a2c'a f2af|Adfa c'4|
g2bg d2gd|BGBd b4|fgab c'def|gbaf g2z2:|

